X:1
T:Byker Hill and Walker Shore
K:G
M:4/4
L:1/4
|: B B B>A | B d e d | A A A G/A/ | B d d2 |
e e e>d | e f g a | g e d B/A/ | G E E2 :|
